svg/icon.svg

<?xml version="1.0" encoding="UTF-8" standalone="no"?>
<svg
   xmlns:dc="http://purl.org/dc/elements/1.1/"
   xmlns:cc="http://creativecommons.org/ns#"
   xmlns:rdf="http://www.w3.org/1999/02/22-rdf-syntax-ns#"
   xmlns:svg="http://www.w3.org/2000/svg"
   xmlns="http://www.w3.org/2000/svg"
   xmlns:sodipodi="http://sodipodi.sourceforge.net/DTD/sodipodi-0.dtd"
   xmlns:inkscape="http://www.inkscape.org/namespaces/inkscape"
   inkscape:export-ydpi="24.000002"
   inkscape:export-xdpi="24.000002"
   inkscape:export-filename="D:\Downloads\icon_16.png"
   sodipodi:docname="06_lifecycle-chat.svg"
   inkscape:version="1.0.2 (e86c870879, 2021-01-15, custom)"
   id="svg8"
   version="1.1"
   viewBox="0 0 16.933333 16.933334"
   height="64"
   width="64">
  <defs
     id="defs2">
    <rect
       id="rect848"
       height="16.906861"
       width="16.906861"
       y="0.01323625"
       x="0.01323625" />
    <filter
       style="color-interpolation-filters:sRGB;"
       inkscape:label="Drop Shadow"
       id="filter1122">
      <feFlood
         flood-opacity="1"
         flood-color="rgb(0,0,0)"
         result="flood"
         id="feFlood1112" />
      <feComposite
         in="flood"
         in2="SourceGraphic"
         operator="in"
         result="composite1"
         id="feComposite1114" />
      <feGaussianBlur
         in="composite1"
         stdDeviation="0.2"
         result="blur"
         id="feGaussianBlur1116" />
      <feOffset
         dx="0"
         dy="0"
         result="offset"
         id="feOffset1118" />
      <feComposite
         in="SourceGraphic"
         in2="offset"
         operator="over"
         result="fbSourceGraphic"
         id="feComposite1120" />
      <feColorMatrix
         result="fbSourceGraphicAlpha"
         in="fbSourceGraphic"
         values="0 0 0 -1 0 0 0 0 -1 0 0 0 0 -1 0 0 0 0 1 0"
         id="feColorMatrix1304" />
      <feFlood
         id="feFlood1306"
         flood-opacity="0.6"
         flood-color="rgb(0,0,0)"
         result="flood"
         in="fbSourceGraphic" />
      <feComposite
         in2="fbSourceGraphic"
         id="feComposite1308"
         in="flood"
         operator="in"
         result="composite1" />
      <feGaussianBlur
         id="feGaussianBlur1310"
         in="composite1"
         stdDeviation="0.2"
         result="blur" />
      <feOffset
         id="feOffset1312"
         dx="0"
         dy="0"
         result="offset" />
      <feComposite
         in2="offset"
         id="feComposite1314"
         in="fbSourceGraphic"
         operator="over"
         result="composite2" />
    </filter>
    <filter
       style="color-interpolation-filters:sRGB;"
       inkscape:label="Drop Shadow"
       id="filter1122-7">
      <feFlood
         flood-opacity="1"
         flood-color="rgb(0,0,0)"
         result="flood"
         id="feFlood1112-3" />
      <feComposite
         in="flood"
         in2="SourceGraphic"
         operator="in"
         result="composite1"
         id="feComposite1114-9" />
      <feGaussianBlur
         in="composite1"
         stdDeviation="0.2"
         result="blur"
         id="feGaussianBlur1116-3" />
      <feOffset
         dx="0"
         dy="0"
         result="offset"
         id="feOffset1118-1" />
      <feComposite
         in="SourceGraphic"
         in2="offset"
         operator="over"
         result="fbSourceGraphic"
         id="feComposite1120-1" />
      <feColorMatrix
         result="fbSourceGraphicAlpha"
         in="fbSourceGraphic"
         values="0 0 0 -1 0 0 0 0 -1 0 0 0 0 -1 0 0 0 0 1 0"
         id="feColorMatrix1316" />
      <feFlood
         id="feFlood1318"
         flood-opacity="0.6"
         flood-color="rgb(0,0,0)"
         result="flood"
         in="fbSourceGraphic" />
      <feComposite
         in2="fbSourceGraphic"
         id="feComposite1320"
         in="flood"
         operator="in"
         result="composite1" />
      <feGaussianBlur
         id="feGaussianBlur1322"
         in="composite1"
         stdDeviation="0.2"
         result="blur" />
      <feOffset
         id="feOffset1324"
         dx="0"
         dy="0"
         result="offset" />
      <feComposite
         in2="offset"
         id="feComposite1326"
         in="fbSourceGraphic"
         operator="over"
         result="composite2" />
    </filter>
    <filter
       style="color-interpolation-filters:sRGB;"
       inkscape:label="Drop Shadow"
       id="filter1122-8">
      <feFlood
         flood-opacity="1"
         flood-color="rgb(0,0,0)"
         result="flood"
         id="feFlood1112-8" />
      <feComposite
         in="flood"
         in2="SourceGraphic"
         operator="in"
         result="composite1"
         id="feComposite1114-5" />
      <feGaussianBlur
         in="composite1"
         stdDeviation="0.2"
         result="blur"
         id="feGaussianBlur1116-8" />
      <feOffset
         dx="0"
         dy="0"
         result="offset"
         id="feOffset1118-8" />
      <feComposite
         in="SourceGraphic"
         in2="offset"
         operator="over"
         result="fbSourceGraphic"
         id="feComposite1120-4" />
      <feColorMatrix
         result="fbSourceGraphicAlpha"
         in="fbSourceGraphic"
         values="0 0 0 -1 0 0 0 0 -1 0 0 0 0 -1 0 0 0 0 1 0"
         id="feColorMatrix1340" />
      <feFlood
         id="feFlood1342"
         flood-opacity="0.6"
         flood-color="rgb(0,0,0)"
         result="flood"
         in="fbSourceGraphic" />
      <feComposite
         in2="fbSourceGraphic"
         id="feComposite1344"
         in="flood"
         operator="in"
         result="composite1" />
      <feGaussianBlur
         id="feGaussianBlur1346"
         in="composite1"
         stdDeviation="0.2"
         result="blur" />
      <feOffset
         id="feOffset1348"
         dx="0"
         dy="0"
         result="offset" />
      <feComposite
         in2="offset"
         id="feComposite1350"
         in="fbSourceGraphic"
         operator="over"
         result="composite2" />
    </filter>
    <filter
       style="color-interpolation-filters:sRGB"
       inkscape:label="Drop Shadow"
       id="filter1122-2">
      <feFlood
         flood-opacity="1"
         flood-color="rgb(0,0,0)"
         result="flood"
         id="feFlood1112-7" />
      <feComposite
         in="flood"
         in2="SourceGraphic"
         operator="in"
         result="composite1"
         id="feComposite1114-7" />
      <feGaussianBlur
         in="composite1"
         stdDeviation="0.2"
         result="blur"
         id="feGaussianBlur1116-5" />
      <feOffset
         dx="0"
         dy="0"
         result="offset"
         id="feOffset1118-3" />
      <feComposite
         in="SourceGraphic"
         in2="offset"
         operator="over"
         result="composite2"
         id="feComposite1120-6" />
    </filter>
    <filter
       style="color-interpolation-filters:sRGB;"
       inkscape:label="Drop Shadow"
       id="filter1122-9">
      <feFlood
         flood-opacity="1"
         flood-color="rgb(0,0,0)"
         result="flood"
         id="feFlood1112-1" />
      <feComposite
         in="flood"
         in2="SourceGraphic"
         operator="in"
         result="composite1"
         id="feComposite1114-3" />
      <feGaussianBlur
         in="composite1"
         stdDeviation="0.2"
         result="blur"
         id="feGaussianBlur1116-7" />
      <feOffset
         dx="0"
         dy="0"
         result="offset"
         id="feOffset1118-5" />
      <feComposite
         in="SourceGraphic"
         in2="offset"
         operator="over"
         result="fbSourceGraphic"
         id="feComposite1120-68" />
      <feColorMatrix
         result="fbSourceGraphicAlpha"
         in="fbSourceGraphic"
         values="0 0 0 -1 0 0 0 0 -1 0 0 0 0 -1 0 0 0 0 1 0"
         id="feColorMatrix1328" />
      <feFlood
         id="feFlood1330"
         flood-opacity="0.6"
         flood-color="rgb(0,0,0)"
         result="flood"
         in="fbSourceGraphic" />
      <feComposite
         in2="fbSourceGraphic"
         id="feComposite1332"
         in="flood"
         operator="in"
         result="composite1" />
      <feGaussianBlur
         id="feGaussianBlur1334"
         in="composite1"
         stdDeviation="0.2"
         result="blur" />
      <feOffset
         id="feOffset1336"
         dx="0"
         dy="0"
         result="offset" />
      <feComposite
         in2="offset"
         id="feComposite1338"
         in="fbSourceGraphic"
         operator="over"
         result="composite2" />
    </filter>
    <filter
       style="color-interpolation-filters:sRGB;"
       inkscape:label="Drop Shadow"
       id="filter1122-5">
      <feFlood
         flood-opacity="1"
         flood-color="rgb(0,0,0)"
         result="flood"
         id="feFlood1112-6" />
      <feComposite
         in="flood"
         in2="SourceGraphic"
         operator="in"
         result="composite1"
         id="feComposite1114-0" />
      <feGaussianBlur
         in="composite1"
         stdDeviation="0.2"
         result="blur"
         id="feGaussianBlur1116-9" />
      <feOffset
         dx="0"
         dy="0"
         result="offset"
         id="feOffset1118-2" />
      <feComposite
         in="SourceGraphic"
         in2="offset"
         operator="over"
         result="fbSourceGraphic"
         id="feComposite1120-8" />
      <feColorMatrix
         result="fbSourceGraphicAlpha"
         in="fbSourceGraphic"
         values="0 0 0 -1 0 0 0 0 -1 0 0 0 0 -1 0 0 0 0 1 0"
         id="feColorMatrix1352" />
      <feFlood
         id="feFlood1354"
         flood-opacity="0.6"
         flood-color="rgb(0,0,0)"
         result="flood"
         in="fbSourceGraphic" />
      <feComposite
         in2="fbSourceGraphic"
         id="feComposite1356"
         in="flood"
         operator="in"
         result="composite1" />
      <feGaussianBlur
         id="feGaussianBlur1358"
         in="composite1"
         stdDeviation="0.2"
         result="blur" />
      <feOffset
         id="feOffset1360"
         dx="0"
         dy="0"
         result="offset" />
      <feComposite
         in2="offset"
         id="feComposite1362"
         in="fbSourceGraphic"
         operator="over"
         result="composite2" />
    </filter>
  </defs>
  <sodipodi:namedview
     inkscape:snap-global="false"
     inkscape:window-maximized="1"
     inkscape:window-y="-8"
     inkscape:window-x="-8"
     inkscape:window-height="1017"
     inkscape:window-width="1920"
     units="px"
     showgrid="false"
     inkscape:document-rotation="0"
     inkscape:current-layer="layer1"
     inkscape:document-units="mm"
     inkscape:cy="17.715141"
     inkscape:cx="33.432998"
     inkscape:zoom="6.4990182"
     inkscape:pageshadow="2"
     inkscape:pageopacity="0.0"
     borderopacity="1.0"
     bordercolor="#666666"
     pagecolor="#ffffff"
     id="base" />
  <metadata
     id="metadata5">
    <rdf:RDF>
      <cc:Work
         rdf:about="">
        <dc:format>image/svg+xml</dc:format>
        <dc:type
           rdf:resource="http://purl.org/dc/dcmitype/StillImage" />
        <dc:title />
      </cc:Work>
    </rdf:RDF>
  </metadata>
  <g
     id="layer1"
     inkscape:groupmode="layer"
     inkscape:label="Layer 1">
    <rect
       ry="3.1618264"
       y="0"
       x="-1.3877788e-17"
       height="16.933332"
       width="16.933332"
       id="rect1090"
       style="fill:#f5f5f5;fill-opacity:1;stroke-width:0.012797;stroke-linecap:round;stroke-linejoin:round" />
    <g
       id="g1452">
      <rect
         style="fill:#419f41;fill-opacity:1;stroke:none;stroke-width:0.522702;stroke-linecap:round;stroke-linejoin:round"
         id="rect1364"
         width="9.5249996"
         height="4.2333331"
         x="1.3229166"
         y="3.175"
         ry="0.88604659" />
      <rect
         style="fill:#419f41;fill-opacity:1;stroke:none;stroke-width:0.529;stroke-linecap:round;stroke-linejoin:round"
         id="rect1366"
         width="1.2482647"
         height="1.2482647"
         x="-0.40797156"
         y="4.1133909"
         transform="rotate(-45)" />
    </g>
    <g
       id="g1456">
      <rect
         style="fill:#4b9fd5;fill-opacity:1;stroke:none;stroke-width:0.522702;stroke-linecap:round;stroke-linejoin:round"
         id="rect1364-5"
         width="9.5249996"
         height="4.2333331"
         x="6.3499999"
         y="9.260417"
         ry="0.88604659" />
      <rect
         style="fill:#4b9fd5;fill-opacity:1;stroke:none;stroke-width:0.529;stroke-linecap:round;stroke-linejoin:round"
         id="rect1366-0"
         width="1.2482647"
         height="1.2482647"
         x="2.4359007"
         y="15.570332"
         transform="rotate(-45)" />
    </g>
    <path
       style="fill:none;stroke:#f2f2f2;stroke-width:0.264583;stroke-linecap:butt;stroke-linejoin:miter;stroke-miterlimit:4;stroke-dasharray:none;stroke-opacity:1"
       d="M 2.38125,4.6302083 H 6.8791667"
       id="path1392" />
    <path
       style="fill:none;stroke:#f2f2f2;stroke-width:0.264583;stroke-linecap:butt;stroke-linejoin:miter;stroke-miterlimit:4;stroke-dasharray:none;stroke-opacity:1"
       d="M 7.6729167,4.6302082 H 9.7895834"
       id="path1392-1" />
    <path
       style="fill:none;stroke:#f2f2f2;stroke-width:0.264583;stroke-linecap:butt;stroke-linejoin:miter;stroke-miterlimit:4;stroke-dasharray:none;stroke-opacity:1"
       d="M 14.816667,10.715625 H 10.31875"
       id="path1392-4" />
    <path
       style="fill:none;stroke:#f2f2f2;stroke-width:0.264583;stroke-linecap:butt;stroke-linejoin:miter;stroke-miterlimit:4;stroke-dasharray:none;stroke-opacity:1"
       d="M 9.5250003,10.715625 H 7.4083333"
       id="path1392-1-2" />
    <path
       style="fill:none;stroke:#f2f2f2;stroke-width:0.264583;stroke-linecap:butt;stroke-linejoin:miter;stroke-miterlimit:4;stroke-dasharray:none;stroke-opacity:1"
       d="M 12.7,11.773959 H 7.4083333"
       id="path1392-1-2-1" />
    <path
       style="fill:none;stroke:#f2f2f2;stroke-width:0.264583;stroke-linecap:butt;stroke-linejoin:miter;stroke-miterlimit:4;stroke-dasharray:none;stroke-opacity:1"
       d="M 2.38125,5.6885415 H 4.4979167"
       id="path1392-1-8" />
    <path
       style="fill:none;stroke:#f2f2f2;stroke-width:0.264583;stroke-linecap:butt;stroke-linejoin:miter;stroke-miterlimit:4;stroke-dasharray:none;stroke-opacity:1"
       d="M 5.2916667,5.6885417 H 7.4083334"
       id="path1392-1-7" />
    <g
       id="g1052"
       transform="matrix(0.75970124,0,0,0.75970124,8.4923694,3.4527166)">
      <path
         id="path1006"
         style="fill:#666666;stroke-width:0.788784;stroke-linecap:round;stroke-linejoin:round"
         d="m -7.0482199,7.0834016 a 2.6458332,2.6458332 0 0 0 -2.639632,2.5853717 h -0.00103 v 0.060461 a 2.6458332,2.6458332 0 0 0 0,0.00517 v 5.9190187 h 1.3322183 v -5.9303875 -0.00258 -0.029972 h 5.168e-4 c 0.016284,-0.7125023 0.5978273,-1.2821627 1.3105143,-1.2836425 h 0.00258 c 0.7136842,9.24e-5 1.2967893,0.5701446 1.313098,1.2836425 h 5.167e-4 v 0.027389 0.00258 5.9329715 h 1.3322186 V 9.7292347 a 2.6458332,2.6458332 0 0 0 0,-0.00517 v -0.055294 h -0.00103 a 2.6458332,2.6458332 0 0 0 -2.6447996,-2.5853717 2.6458332,2.6458332 0 0 0 -0.00517,0 z" />
      <rect
         style="fill:#333333;stroke-width:0.923191;stroke-linecap:round;stroke-linejoin:round"
         id="rect1004"
         width="7.7351422"
         height="5.9845576"
         x="-10.910622"
         y="11.562003" />
    </g>
  </g>
</svg>

<svg width="64" height="64" version="1.1" viewBox="0 0 16.9 16.9" xmlns="http://www.w3.org/2000/svg">
 <rect x="-1.39e-17" width="16.9" height="16.9" ry="3.16" fill="#f5f5f5" stroke-linecap="round" stroke-linejoin="round" stroke-width=".0128"/>
 <g fill="#419f41">
  <rect x="1.32" y="3.18" width="9.52" height="4.23" ry=".886"/>
  <rect transform="rotate(-45)" x="-.408" y="4.11" width="1.25" height="1.25"/>
 </g>
 <g fill="#4b9fd5">
  <rect x="6.35" y="9.26" width="9.52" height="4.23" ry=".886"/>
  <rect transform="rotate(-45)" x="2.44" y="15.6" width="1.25" height="1.25"/>
 </g>
 <path d="m2.38 4.63h4.5" fill="none" stroke="#f2f2f2" stroke-width=".265"/>
 <path d="m7.67 4.63h2.12" fill="none" stroke="#f2f2f2" stroke-width=".265"/>
 <path d="m14.8 10.7h-4.5" fill="none" stroke="#f2f2f2" stroke-width=".265"/>
 <path d="m9.53 10.7h-2.12" fill="none" stroke="#f2f2f2" stroke-width=".265"/>
 <path d="m12.7 11.8h-5.29" fill="none" stroke="#f2f2f2" stroke-width=".265"/>
 <path d="m2.38 5.69h2.12" fill="none" stroke="#f2f2f2" stroke-width=".265"/>
 <path d="m5.29 5.69h2.12" fill="none" stroke="#f2f2f2" stroke-width=".265"/>
 <g transform="matrix(.76 0 0 .76 8.49 3.45)" stroke-linecap="round" stroke-linejoin="round">
  <path d="m-7.05 7.08a2.65 2.65 0 00-2.64 2.59h-.00103v.0605a2.65 2.65 0 000 .00517v5.92h1.33v-5.96h.000517c.0163-.713.598-1.28 1.31-1.28h.00258c.714 9.24e-5 1.3.57 1.31 1.28h.000517v5.96h1.33v-5.92a2.65 2.65 0 000-.00517v-.0553h-.00103a2.65 2.65 0 00-2.64-2.59 2.65 2.65 0 00-.00517 0z" fill="#666" stroke-width=".789"/>
  <rect x="-10.9" y="11.6" width="7.74" height="5.98" fill="#333" stroke-width=".923"/>
 </g>
</svg>
